!!!COM: Palestrina, Giovanni Perluigi da
!!!OPR: Missa Aeterna Christi munera
!!!OMD: Benedictus
!!!OTL: Hosanna
**kern	**kern	**kern	**kern
*Ibass	*Itenor	*Icalto	*Icant
!Bassus	!Tenor	!Altus	!Cantus
*clefF4	*clefGv2	*clefG2	*clefG2
*k[b-]	*k[b-]	*k[b-]	*k[b-]
*F:ion	*F:ion	*F:ion	*F:ion
*M4/2	*M4/2	*M4/2	*M4/2
=32	=32	=32	=32
1r	1B-	0r	0r
2r	2B-	.	.
2F	2c	.	.
=33	=33	=33	=33
2F	2d	0r	0r
2G	2B-	.	.
2A	2c	.	.
2F	[2d	.	.
=34	=34	=34	=34
2G	2d]	2r	0r
2A	2c	2f	.
2B-	2d	2f	.
2G	2e	2g	.
=35	=35	=35	=35
1F	2.f	1.a	2r
.	.	.	2f
.	4e	.	.
1r	2d	.	2f
.	4c	2e	2g
.	4B-	.	.
=36	=36	=36	=36
0r	2A	2.f	2a
.	2B-	.	2f
.	.	4d	.
.	2G	2e	2g
.	2F	2f	2a
=37	=37	=37	=37
1r	4G	0d	1.b-
.	4A	.	.
.	4B-	.	.
.	4c	.	.
1B-	4d	.	.
.	4e	.	.
.	[2f	.	2a
=38	=38	=38	=38
2B-	2f]	0r	1g
2c	2e	.	.
2.d	2f	.	[1f
.	2B-	.	.
4c	.	.	.
=39	=39	=39	=39
2B-	2B-	2r	1f]
2A	2c	2f	.
2B-	2d	2f	1r
2G	2B-	2g	.
=40	=40	=40	=40
1F	2c	2a	1r
.	2d	2f	.
1r	2e-	2g	2r
.	4d	2a	2f
.	4c	.	.
=41	=41	=41	=41
0r	2B-	2.b-	2f
.	2G	.	2g
.	.	8a	.
.	.	8g	.
.	2.d	2f	2a
.	.	2a	2f
.	4c	.	.
=42	=42	=42	=42
0r	2B-	2g	2g
.	2A	1f	2a
.	1G	.	[1b-
.	.	2e	.
=43	=43	=43	=43
0r	1F	4d	2b-]
.	.	4c	.
.	.	1f	2a
.	2.c	.	2g
.	.	2e	[2a
.	4B-	.	.
=44	=44	=44	=44
2r	2A	2c	4a]
.	.	.	4g
2BB-	2B-	1d	1f
2BB-	1G	.	.
2C	.	4c	2e
.	.	4B-	.
=45	=45	=45	=45
2D	2F	2A	[0f
2BB-	2B-	2.d	.
2.D	2A	.	.
.	.	4c	.
.	2d	2B-	.
4E	.	.	.
=46	=46	=46	=46
0F	2c	2A	0f]
.	1B-	2d	.
.	.	1c	.
.	2A	.	.
=47	=47	=47	=47
0BB-	2.d	2.B-	[0f
.	4c	4c	.
.	1B-	1d	.
=48	=48	=48	=48
0F	0A	0c	0f]
==	==	==	==
*-	*-	*-	*-
!!!CDT: 1525/^1526/-1594/2/2
!!!OCY: Italia
!!!AGN: Mass (Paraphrase)
!!!AST: renaissance, vocal
!!!ASW: Hymn
!!!PWK: Masses, Book 5
!!!RNB: Cadence finals: C
!!!YOR: Le Opere Complete, v. 15, p. 1
!!!YOO: Rome, Italy: Fratelli Scalera
!!!END: 1992//
!!!EED: John Miller
!!!YEC: Copyright 2000, John Miller
!!!YEN: United States of America
!!!YEM: Rights to all derivative electronic formats reserved.
!!!YEM: Refer to licensing agreement for further details.
!!!YEM: This file must be accompanied by the licensing agreement.
!!!YEM: A copy of the licensing agreement may be found at http://www.music-cog.ohio-state.edu/HumdrumDatabases/Palestrina/license.txt
!!!EMD: converted to Humdrum by Bret Aarden
